X:381
T: Den ich nicht gerne hab (4-80), S. 102
N: P0651
O: Lothringen
S: PINCK, Louis: Verklingende Weisen Bd 4, Kassel 1939]
R: Liebe, Sehnsucht, ???]
M: 6/8
L: 1/16
K: Bb
F2G2A2 | B3FF2
F2B2d2 | c3cG2
c2c2d2 | e3cA2
F2G2A2 | B3FF2
FFG2B2 | F6
BBA2G2 | G6
c2c2d2 | e3cAFd4c2 | B4z2

@@@ Tune index: 7931
